X:359
T: Cai Cha yao
N: C1308
O: China,Jiangxi
S: MM]
N: Pinyin-Text der ersten Strophe vorhanden!
R: Xiaodiao, Chage, Wuge, Caicha. Chanong Shenghuo]
M: 2/4
L: 1/8
K: C
CA,CD | E3D | E4 |
DGED | C3A, | C4 |
C2E2 | DEDC | A,2G,A, |
C2DC | A,3G, | A,4

@@@ Tune index: 6360
